!!!!SEGMENT: pl-wtm--r-2137--003_wysocki-kasper-napoleon--anglaise-par-wysocki.krn
!!!cenid: 18xx:4367
!!!COM: Wysocki, Kasper Napoleon
!!!COM-rismID: pe41024789
!!!CDT: 1810/12/06-1850/09/21
!!!CNT: Polish
!!!OTL: Anglaise par Wysocki
!!!PDT:
!!!AGN: Secular; Anglaise
!!!SMS-siglum: PL-Wtm
!!!SMS-shelfmark: R 2137
!!!SMS-shelfwork: 003 W
!!!SMS-variant:
!!!SMS-altvar:
!!!NIFC-rismSourceID: 1001139713
!!!NIFC-rismChildID: 1001139756
!!!NIFC-islandoraID: pl-wtm:29938
!!!URL-pdf-islandora: https://repozytorium.nifc.pl/islandora/object/pl-wtm:29938/datastream/PDF/view
!!!URL-scan: https://polish.musicsources.pl/pl/lokalizacje/galeria/rekopisy/6567/3 @EN{Scan on Polish Music Sources Website} @PL{Skany w portalu Dziedzictwo Muzyki Polskiej w otwartym dostępie}
!!!ONB-nifc: UWAGA: skan 3 (prawa strona).
!!!AIN: 2 piano
!!!key: C
!!!OMD: Anglaise par Wysocki
**kern	**kern	**dynam
*part2	*part1	*part1
*staff2	*staff1	*
*I"fortepian	*I"fortepian	*
*Ipiano	*Ipiano	*
*ICklav	*ICklav	*
*clefF4	*clefG2	*
*k[]	*k[]	*
*C:	*C:	*
*M2/4	*M2/4	*
*	*8va	*
8r	(32ccc\LLL	.
.	32eee\	.
.	32fff\	.
.	32eee\JJJ)	.
=1	=1	=1
!LO:TX:t=P:problem:mixed beam	!	!
8CC'/L	8ggg'\	p
8e 8c'\	(32ccc\LLL	.
.	32eee\	.
.	32fff\	.
.	32eee\JJJ)	.
8G'\	8ggg'\	.
8eJ 8c'\	(32ccc\LLL	.
.	32eee\	.
.	32fff\	.
.	32eee\JJJ)	.
=2	=2	=2
!LO:TX:t=P:problem:mixed beam	!	!
8CC'/L	8ggg\	.
!	!LO:TUP:a:problem:klamra łukowa	!
8e 8c'\	24ggg\LL	.
.	24eeee\	.
.	24ggg\JJ	.
!	!LO:TUP:a:problem:klamra łukowa	!
8G'\	24fff#X\LL	.
.	24dddd#X\	.
.	24fff#\JJ	.
!	!LO:TUP:a:problem:klamra łukowa	!
8eJ 8c'\	24ggg\LL	.
.	24eeee\	.
.	24ggg\JJ	.
=3	=3	=3
!LO:TX:t=P:problem:mixed beam	!LO:TUP:a:problem:klamra łukowa	!
8GG'/L	24fffn\LL	.
.	24ggg\	.
.	24eeee\JJ	.
!	!LO:TUP:a:problem:klamra łukowa	!
8f 8d 8B'\	24fff\LL	.
.	24ggg\	.
.	24ddddn\JJ	.
!	!LO:TUP:a:problem:klamra łukowa	!
8G'\	24fff\LL	.
.	24ggg\	.
.	24cccc#X\JJ	.
!	!LO:TUP:a:problem:klamra łukowa	!
8fJ 8d 8B'\	24fff\LL	.
.	24ggg\	.
.	24dddd\JJ	.
!!LO:LB:g=original
=4	=4	=4
!LO:TX:t=P:problem:mixed beam	!LO:TUP:a:problem:klamra łukowa	!
8C'/L	24eee\LL	.
.	24ggg\	.
.	24dddd\JJ	.
!	!LO:TUP:a:problem:klamra łukowa	!
8e 8c'\	24eee\LL	.
.	24ggg\	.
.	24ccccn\JJ	.
!	!LO:TUP:a:problem:klamra łukowa	!
8G'\	24eee\LL	.
.	24ggg\	.
.	24bbb\JJ	.
!	!LO:TUP:a:problem:klamra łukowa	!
8eJ 8c'\	24eee\LL	.
.	24ggg\	.
.	24cccc\JJ	.
=5	=5	=5
.	16qqccc/LL	.
!LO:TX:t=P:problem:mixed beam	!	!
.	16qqeee/JJ	.
8CC'/L	8ggg'\	.
8e 8c'\	(32ccc\LLL	.
.	32eee\	.
.	32fff\	.
.	32eee\JJJ)	.
8G'\	8ggg'\	.
8eJ 8c'\	(32ccc\LLL	.
.	32eee\	.
.	32fff\	.
.	32eee\JJJ)	.
=6	=6	=6
!LO:TX:t=P:problem:mixed beam	!	!
8CC'/L	8ggg'\	.
!	!LO:TUP:a:problem:klamra łukowa	!
8e 8c'\	24ggg\LL	.
.	24eeee\	.
.	24ggg\JJ	.
!	!LO:TUP:a:problem:klamra łukowa	!
8G'\	24fff#X\LL	.
.	24dddd#X\	.
.	24fff#\JJ	.
!	!LO:TUP:a:problem:klamra łukowa	!
8eJ 8c'\	24ggg\LL	.
.	24eeee\	.
.	24ggg\JJ	.
!!LO:LB:g=original
=7	=7	=7
!LO:TX:t=P:problem:mixed beam	!LO:TUP:a:problem:klamra łukowa	!
8GG'/L	24fffn\LL	.
.	24ggg\	.
.	24eeee\JJ	.
!	!LO:TUP:a:problem:klamra łukowa	!
8f 8d 8B'\	24fff\LL	.
.	24ggg\	.
.	24dddd\JJ	.
!	!LO:TUP:a:problem:klamra łukowa	!
8G'\	24fff\LL	.
.	24ggg\	.
.	24cccc#X\JJ	.
!	!LO:TUP:a:problem:klamra łukowa	!
8fJ 8d 8B'\	24fff\LL	.
.	24ggg\	.
.	24dddd\JJ	.
=	=	=
8e\L	4cccc 4ggg 4eee\	.
8c 8C\	.	.
8cJ 8C\	8r	.
=8||	=8||	=8||
!!!key: e
!	!	!LO:DY:t=p.
.	16qqbbb/LL	p
.	16qqcccc/JJ	.
8r	8bbb\	.
=9	=9	=9
!LO:TX:t=P:problem:mixed beam	!LO:TX:b:i:t=leggiero.	!
8EE'/L	16ggg\LL	.
.	16eee\	.
8B 8G'\	16bb\	.
.	16qqbbb/LL	.
.	16qqcccc/JJ	.
.	(16bbb\JJ	.
8E'\	16aaa\LL	.
.	16ggg\	.
8BJ 8G'\	16fff#X\	.
.	16eee\JJ	.
=10	=10	=10
!LO:TX:t=P:problem:mixed beam	!	!
8EE'/L	16bb\LL)	.
.	16bb\	.
.	8qddd/	.
8B 8G'\	16ccc\	.
.	16bb\JJ	.
8E'\	16aa/LL	.
.	16gg/	.
8BJ 8G'\	16ff#X/	.
.	16ee/JJ	.
!!LO:LB:g=original
=11	=11	=11
!LO:TX:t=P:problem:mixed beam	!	!
8BBB'/L	(16dd#X/LL	<
.	16ff#X/	.
8A 8F#X 8D#X'\	16aa/	.
.	16ddd#X/JJ)	[
8BB'\	16fff\LL	.
.	16qqccc/LL	.
.	16qqddd#/JJ	.
.	16ccc\	.
8AJ 8F# 8D#'\	16bb\	.
.	16aa\JJ	.
*	*X8va	*
=12	=12	=12
!LO:TX:t=P:problem:mixed beam	!	!
8EE'/L	(16g/LL	>
.	16a/	.
.	8qcc/	.
8B 8G'\	16b/	.
.	16g/JJ)	]
8E'\	8e/	.
.	16qqbb/LL	.
.	16qqccc/JJ	.
8BJ 8G'\	8bb\	.
=13	=13	=13
!LO:TX:t=P:problem:mixed beam	!	!
8EE'/L	16gg\LL	.
.	16ee\	.
8B 8G'\	16b\	.
.	16qqbb/LL	.
.	16qqccc/JJ	.
.	16bb\JJ	.
8E'\	16aa\LL	.
.	16gg\	.
8BJ 8G'\	16ff#X\	.
.	16ee\JJ	.
=14	=14	=14
!LO:TX:t=P:problem:mixed beam	!	!
8EE'/L	16b\LL	.
.	16b\	.
.	8qdd/	.
8B 8G'\	16cc\	.
.	16b\JJ	.
8E'\	16a/LL	.
.	16g/	.
8BJ 8G'\	16f#X/	.
.	16e/JJ	.
!!LO:LB:g=original
=15	=15	=15
!LO:TX:t=P:problem:mixed beam	!	!
8BBB'/L	16d#X/LL	.
.	16cc/JJ	.
8A 8F#X 8D#X'\	16b\LL	<
!	!LO:TX:t=P:problem:obiegnik z #	!
.	16bsSsS\JJ	.
8BB'\	16ccc\LL	.
.	16bb\	[
8AJ 8F# 8D#'\	16ff#X\	.
.	16gg\JJ	.
=16	=16	=16
8G 8E'\	16ee\	.
.	8.ggT\	.
8r	.	.
.	16qqee/LL	.
!	!LO:TX:b:t=fine	!
.	16qqgg/JJ	.
!	!	!LO:DY:rj
4E 4EE/	4eee\	f
==	==	==
*-	*-	*-
!!!system-decoration: {(*)}
!!!ENC: Filip Voros
!!!END: 2023-07-12
!!!ENC: Marta Lawrence
!!!END: 2023-07-21
!!!YEC: Copyright 2022 Narodowy Instytut Fryderyka Chopina (https://polishscores.org)
!!!YEM: License CC-BY-4.0 (https://creativecommons.org/licenses/by/4.0)
